dist/assets/images/yt.svg

<svg width="28" height="32" viewBox="0 0 28 32" fill="none" xmlns="http://www.w3.org/2000/svg">
<path d="M17.6257 22.2143V25.9821C17.6257 26.7798 17.3936 27.1786 16.9293 27.1786C16.6555 27.1786 16.3876 27.0476 16.1257 26.7857V21.4107C16.3876 21.1488 16.6555 21.0179 16.9293 21.0179C17.3936 21.0179 17.6257 21.4167 17.6257 22.2143ZM23.6614 22.2321V23.0536H22.0543V22.2321C22.0543 21.4226 22.3221 21.0179 22.8578 21.0179C23.3936 21.0179 23.6614 21.4226 23.6614 22.2321ZM6.41141 18.3393H8.32213V16.6607H2.7507V18.3393H4.6257V28.5H6.41141V18.3393ZM11.5543 28.5H13.1436V19.6786H11.5543V26.4286C11.1971 26.9286 10.8578 27.1786 10.5364 27.1786C10.3221 27.1786 10.1971 27.0536 10.1614 26.8036C10.1495 26.7679 10.1436 26.5595 10.1436 26.1786V19.6786H8.55427V26.6607C8.55427 27.244 8.60189 27.6786 8.69713 27.9643C8.83998 28.4048 9.18522 28.625 9.73284 28.625C10.3043 28.625 10.9114 28.2619 11.5543 27.5357V28.5ZM19.215 25.8571V22.3393C19.215 21.4702 19.1614 20.881 19.0543 20.5714C18.8519 19.9048 18.4293 19.5714 17.7864 19.5714C17.1912 19.5714 16.6376 19.8929 16.1257 20.5357V16.6607H14.5364V28.5H16.1257V27.6429C16.6614 28.2976 17.215 28.625 17.7864 28.625C18.4293 28.625 18.8519 28.2976 19.0543 27.6429C19.1614 27.3214 19.215 26.7262 19.215 25.8571ZM25.2507 25.6786V25.4464H23.6257C23.6257 26.0536 23.6138 26.4167 23.59 26.5357C23.5066 26.9643 23.2686 27.1786 22.8757 27.1786C22.3281 27.1786 22.0543 26.7679 22.0543 25.9464V24.3929H25.2507V22.5536C25.2507 21.6131 25.09 20.9226 24.7686 20.4821C24.3043 19.875 23.6733 19.5714 22.8757 19.5714C22.0662 19.5714 21.4293 19.875 20.965 20.4821C20.6316 20.9226 20.465 21.6131 20.465 22.5536V25.6429C20.465 26.5833 20.6376 27.2738 20.9828 27.7143C21.4471 28.3214 22.09 28.625 22.9114 28.625C23.7686 28.625 24.4114 28.3095 24.84 27.6786C25.0543 27.3571 25.1793 27.0357 25.215 26.7143C25.2388 26.6071 25.2507 26.2619 25.2507 25.6786ZM14.3936 9.375V5.625C14.3936 4.80357 14.1376 4.39286 13.6257 4.39286C13.1138 4.39286 12.8578 4.80357 12.8578 5.625V9.375C12.8578 10.2083 13.1138 10.625 13.6257 10.625C14.1376 10.625 14.3936 10.2083 14.3936 9.375ZM27.2328 22.7857C27.2328 25.5714 27.0781 27.6548 26.7686 29.0357C26.6019 29.7381 26.2566 30.3274 25.7328 30.8036C25.209 31.2798 24.6019 31.5536 23.9114 31.625C21.7209 31.875 18.4174 32 14.0007 32C9.58403 32 6.28046 31.875 4.08998 31.625C3.39951 31.5536 2.78939 31.2798 2.25963 30.8036C1.72986 30.3274 1.3876 29.7381 1.23284 29.0357C0.923317 27.7024 0.768555 25.619 0.768555 22.7857C0.768555 20 0.923317 17.9167 1.23284 16.5357C1.39951 15.8333 1.74475 15.244 2.26855 14.7679C2.79236 14.2917 3.40546 14.0119 4.10784 13.9286C6.28641 13.6905 9.58403 13.5714 14.0007 13.5714C18.4174 13.5714 21.7209 13.6905 23.9114 13.9286C24.6019 14.0119 25.212 14.2917 25.7418 14.7679C26.2715 15.244 26.6138 15.8333 26.7686 16.5357C27.0781 17.869 27.2328 19.9524 27.2328 22.7857ZM9.41141 0H11.2328L9.07213 7.125V11.9643H7.28641V7.125C7.11974 6.24405 6.75665 4.98214 6.19713 3.33929C5.75665 2.1131 5.36974 1 5.03641 0H6.92927L8.19713 4.69643L9.41141 0ZM16.0186 5.94643V9.07143C16.0186 10.0357 15.8519 10.7381 15.5186 11.1786C15.0662 11.7857 14.4352 12.0893 13.6257 12.0893C12.8281 12.0893 12.2031 11.7857 11.7507 11.1786C11.4174 10.7262 11.2507 10.0238 11.2507 9.07143V5.94643C11.2507 4.99405 11.4174 4.29762 11.7507 3.85714C12.2031 3.25 12.8281 2.94643 13.6257 2.94643C14.4352 2.94643 15.0662 3.25 15.5186 3.85714C15.8519 4.29762 16.0186 4.99405 16.0186 5.94643ZM22.0007 3.05357V11.9643H20.3757V10.9821C19.7447 11.7202 19.1316 12.0893 18.5364 12.0893C17.9888 12.0893 17.6376 11.869 17.4828 11.4286C17.3876 11.1429 17.34 10.6964 17.34 10.0893V3.05357H18.965V9.60714C18.965 10 18.9709 10.2083 18.9828 10.2321C19.0186 10.494 19.1436 10.625 19.3578 10.625C19.6793 10.625 20.0186 10.369 20.3757 9.85714V3.05357H22.0007Z" fill="white"/>
</svg>

<svg width="28" height="32" fill="none" xmlns="http://www.w3.org/2000/svg"><path d="M17.626 22.214v3.768c0 .798-.232 1.197-.697 1.197-.273 0-.541-.131-.803-.393V21.41c.262-.262.53-.393.803-.393.465 0 .697.399.697 1.196Zm6.035.018v.822h-1.607v-.822c0-.81.268-1.214.804-1.214s.803.405.803 1.214ZM6.411 18.34h1.911v-1.678H2.751v1.678h1.875V28.5H6.41V18.34Zm5.143 10.16h1.59v-8.821h-1.59v6.75c-.357.5-.696.75-1.018.75-.214 0-.339-.125-.375-.375-.011-.036-.017-.244-.017-.625v-6.5h-1.59v6.982c0 .583.048 1.018.143 1.303.143.44.488.661 1.036.661.571 0 1.178-.363 1.821-1.09v.965Zm7.661-2.643V22.34c0-.869-.054-1.458-.16-1.768-.203-.666-.626-1-1.269-1-.595 0-1.148.322-1.66.965V16.66h-1.59V28.5h1.59v-.857c.535.655 1.089.982 1.66.982.643 0 1.066-.327 1.268-.982.107-.322.161-.917.161-1.786Zm6.036-.178v-.233h-1.625c0 .608-.012.97-.036 1.09-.083.428-.321.643-.714.643-.548 0-.822-.411-.822-1.233v-1.553h3.197v-1.84c0-.94-.161-1.63-.482-2.07-.465-.608-1.096-.912-1.893-.912-.81 0-1.447.304-1.911.911-.333.44-.5 1.131-.5 2.072v3.089c0 .94.173 1.63.518 2.071.464.607 1.107.911 1.928.911.858 0 1.5-.316 1.929-.946a2.17 2.17 0 0 0 .375-.965c.024-.107.036-.452.036-1.035ZM14.394 9.375v-3.75c0-.821-.256-1.232-.768-1.232s-.768.41-.768 1.232v3.75c0 .833.256 1.25.768 1.25s.768-.417.768-1.25Zm12.839 13.41c0 2.786-.155 4.87-.464 6.25a3.392 3.392 0 0 1-1.036 1.769 3.122 3.122 0 0 1-1.822.821c-2.19.25-5.494.375-9.91.375-4.417 0-7.72-.125-9.911-.375a3.165 3.165 0 0 1-1.83-.821 3.264 3.264 0 0 1-1.027-1.768c-.31-1.334-.464-3.417-.464-6.25 0-2.786.154-4.87.464-6.25a3.39 3.39 0 0 1 1.036-1.768 3.238 3.238 0 0 1 1.839-.84c2.178-.238 5.476-.357 9.893-.357 4.416 0 7.72.12 9.91.358.69.083 1.301.363 1.83.839.53.476.873 1.065 1.028 1.768.31 1.333.464 3.416.464 6.25ZM9.41 0h1.822l-2.16 7.125v4.84H7.285v-4.84c-.166-.881-.53-2.143-1.089-3.786A154.18 154.18 0 0 1 5.037 0h1.892l1.268 4.696L9.411 0Zm6.608 5.946v3.125c0 .965-.167 1.667-.5 2.108-.453.607-1.084.91-1.893.91-.798 0-1.423-.303-1.875-.91-.334-.453-.5-1.155-.5-2.108V5.946c0-.952.166-1.648.5-2.089.452-.607 1.077-.91 1.875-.91.81 0 1.44.303 1.893.91.333.44.5 1.137.5 2.09ZM22 3.054v8.91h-1.625v-.982c-.631.738-1.244 1.107-1.84 1.107-.547 0-.898-.22-1.053-.66-.095-.286-.143-.733-.143-1.34V3.054h1.625v6.553c0 .393.006.601.018.625.036.262.16.393.375.393.321 0 .66-.256 1.018-.768V3.054H22Z" fill="#fff"/></svg>
